packages/bezier-icons/icons/bookmark.svg

<svg width="24" height="24" viewBox="0 0 24 24" fill="none" xmlns="http://www.w3.org/2000/svg">
<path fill-rule="evenodd" clip-rule="evenodd" d="M5.99999 5V20.355L12 15.113L18 20.355V5H5.99999ZM5.46899 22.953C5.25799 22.953 5.04399 22.908 4.84099 22.815C4.29999 22.568 3.96399 22.046 3.96399 21.451C3.96399 19.9153 3.96399 9.44968 3.96399 4.99773C3.96399 3.89316 4.85942 3 5.96399 3H18.0045C19.1073 3 20.002 3.89172 20.0044 4.99452C20.0141 9.34423 20.036 19.4541 20.036 21.45C20.036 22.045 19.699 22.568 19.158 22.815C18.617 23.062 18.002 22.973 17.552 22.584L12 17.762L6.44799 22.583C6.16699 22.827 5.82099 22.953 5.46899 22.953Z" fill="#313234"/>
</svg>

<svg xmlns="http://www.w3.org/2000/svg" width="24" height="24" fill="none" viewBox="0 0 24 24"><path fill="#313234" fill-rule="evenodd" d="M6 5v15.355l6-5.242 6 5.242V5zm-.531 17.953c-.211 0-.425-.045-.628-.138a1.48 1.48 0 0 1-.877-1.364V4.998c0-1.105.895-1.998 2-1.998h12.04c1.103 0 1.998.892 2 1.995.01 4.35.032 14.46.032 16.455 0 .595-.337 1.118-.878 1.365a1.49 1.49 0 0 1-1.606-.231L12 17.762l-5.552 4.821c-.281.244-.627.37-.979.37" clip-rule="evenodd"/></svg>
